X: 946
T: Gülşende Yine Âh ü Enîn...
C: Muallim İsmail Hakkı Bey
O: Turkey
F: http://compmusic.upf.edu/node/140
N: rast--nakis--yuruksemai--gulsende_yine--muallim_ismail_hakki_bey
N: makam= rast
N: form= nakis
N: usul= yuruksemai = 6/8
M: 6/8
L: 1/16
K: C _1/4B ^f  
Q: 1/4=78
%%MIDI tuningsystem comma53
G4G4 A4B4 cBced2c2  | c3BB3A A2GAB2{c}AG G4z4  | 
w:  Gül şen de  yi ne   |  âh_ *  *  *  ü  *  *  e *  *  *  nîn   | 
d6dc c2{d}cBB2{c}BA A4z4  | c6cB B2{c}BAA2{B}AG G4z4  | 
w:  ey   |  ey   | 
d6c2 B3AG4 dcBAB2c2  | d4z4 dccBBAAG d4z4  | 
w:  ey *  le *  di  bül  |  bül   SAZ  | 
d4e4 c4d2e2 d2cdc2B2  | d6dc c3BdcB^A B4z4  | 
w:  Bir  nakş_ o ku *  yup   |  savt_ *  *  ı  *  he *  *  *  zâr   | 
d3cB2d2 c3BA2c2 B3AG4  | d6dc c3BB3A A2GAB2AG  | 
w:  ey   |  ey *  *  le *  di  *  bül  | 
G4z4 dedcBABc d4z4  | d4d3c B4c4 c3BA4  | \
w:  bül   SAZ  |  Ten  nen  *  ni  ten  nen  *  ni   | 
B4B3A G2A2B2c2 d4z4  | 
w:  ten  nen  *  ni  *  te  ne  nen   | 
d2e2f2g2 a2g2=f2e2 d3^c=B2c2  | d6e2 d2c2B2A2 G4z4  | \
w:  nâ  *  *  *  te  *  ne  *  dir   |  ney   SAZ  | 
d4d3c B4c4 c3BA4  | 
w:  Ten  nen  *  ni  ten  nen  *  ni   | 
B4B3A G2A2B2c2 d4z4  | d2e2f2g2 a2g2=f2e2 d3^c=B2c2  | 
w:  ten  nen  *  ni  *  te  ne  nen   |  nâ  *  *  *  te  *  ne  *  dir   | 
d4z4 dccBBAAG d4z4  | d4e4 c4d2e2 d2cdc3B  | 
w:  ney   SAZ  |  Bir  nakş_ o ku *  yup   | 
d6dc c3BdcB^A B4z4  | d3cB2d2 c3BA2c2 B3AG4  | 
w:  savt_ *  *  ı  *  he *  *  *  zâr   |  ey   | 
d6dc c3BB3A A2GAB2AG  | G4z4 gag^9/8fedef g4z4  | 
w:  ey *  *  le *  di  *  bül  |  bül   SAZ  | 
g4g4 a4=b4 c'3ba2c'2  | =b3ag2b2 a2g2=f2e2 d4z4  | \
w:  Ol maz  de he ni   |  yâ *  *  *  re  *  mü *  şâ  | 
c'2=b2a2c'2 b3ag2b2 a2g2=f2e2  | 
w:  bih   | 
d8 e4^9/8f4 g3a=b2ag  | g8 d4e3/2d/e^1/4f g4z4  | \
w:  *  de yu  gon  |  ce   SAZ  | 
d4e4 c4d2e2 d2cdc2B2  | 
w:  Gül  mu sâ fı *  nı   | 
d6dc c3BdcB^A B4z4  | d3cB2d2 c3BA2c2 B3AG4  | 
w:  aç *  *  tı  *  ye *  *  *  min   |  ey   | 
d6dc c3BB3A A2GAB2AG  | G4z4 dedcBABc d4z4  | 
w:  ey *  *  le *  di  *  bül  |  bül   SAZ  | 
d4d3c B4c4 c3BA4  | B4B3A G2A2B2c2 d4z4  | \
w:  Ten  nen  *  ni  ten  nen  *  ni   |  ten  nen  *  ni  *  te  ne  nen   | 
d2e2f2g2 a2g2=f2e2 d3^c=B2c2  | 
w:  nâ  *  *  *  te  *  ne  *  dir   | 
d6e2 d2c2B2A2 G4z4  | d4d3c B4c4 c3BA4  | \
w:  ney   SAZ  |  Ten  nen  *  ni  ten  nen  *  ni   | 
B4B3A G2A2B2c2 d4z4  | 
w:  ten  nen  *  ni  *  te  ne  nen   | 
d2e2f2g2 a2g2=f2e2 d3^c=B2c2  | d4z4 dccBBAAG d4z4  | 
w:  nâ  *  *  *  te  *  ne  *  dir   |  ney   SAZ  | 
d4e4 c4d2e2 d2cdc3B  | d6dc c3BdcB^A B4z4  | 
w:  Bir  nakş_ o ku *  yup   |  savt_ *  *  ı  *  he *  *  *  zâr   | 
d3cB2d2 c3BA2c2 B3AG4  | d6dc c3BB3A A2GAB2AG  | 
w:  ey   |  ey *  *  le *  di  *  bül  | 
G4|
w:  bül    | 


